public/home/mountain-2.svg

<svg width="1280" height="296" viewBox="0 0 1280 296" fill="none" xmlns="http://www.w3.org/2000/svg">
<g filter="url(#filter0_i_2032_11)">
<path d="M0 276.086V78.9062C0 78.9062 39.168 96.3487 68.8091 94.7117C98.4442 93.081 148.181 67.3344 170.709 59.1933C193.237 51.0522 185.856 55.7561 204.245 46.6429C222.629 37.5296 246.467 -1.451 278.272 0.0417437C310.083 1.53449 337.548 57.8698 361.887 64.1167C386.225 70.3699 389.419 50.2807 413.501 59.9773C437.589 69.6801 478.744 121.249 514.31 131.786C549.87 142.323 543.531 133.554 569.064 138.371C594.597 143.182 628.943 159.295 666.728 164.049C704.512 168.803 762.24 162.826 794.325 163.152C826.411 163.485 834.341 167.649 859.209 164.946C884.078 162.243 914.091 144.982 941.952 144.33C969.813 143.684 991.97 159.339 1022.52 160.468C1053.07 161.59 1086.39 148.325 1123.11 147.917C1159.84 147.51 1280 167.486 1280 167.486V296L0 276.086Z" fill="url(#paint0_linear_2032_11)"/>
</g>
<path d="M236.884 20.1182C249.097 9.43796 262.745 0.314433 278.226 1.04102C285.892 1.40088 293.379 5.07059 300.733 10.6035C308.084 16.1335 315.207 23.4522 322.146 30.9746C329.061 38.4701 335.812 46.1903 342.338 52.4033C348.645 58.4077 354.884 63.1502 361.042 64.9229L361.638 65.085C367.864 66.6848 372.782 66.6085 377.036 65.7236C381.26 64.8449 384.801 63.1701 388.194 61.6699C391.613 60.1588 394.906 58.8117 398.803 58.4072C402.682 58.0047 407.232 58.5319 413.127 60.9053C418.996 63.2693 425.983 68.2233 433.781 74.584C441.567 80.9346 450.051 88.5939 458.945 96.3232C476.658 111.717 496 127.403 514.026 132.744C531.87 138.032 539.292 138.502 545.492 138.223C551.578 137.948 556.25 136.971 568.878 139.354L568.879 139.354C581.567 141.745 596.447 146.944 613 152.185C629.512 157.412 647.616 162.652 666.603 165.041C685.584 167.429 709.536 167.12 732.701 166.261C755.912 165.4 778.304 163.99 794.315 164.152C810.313 164.318 820.271 165.437 829.392 166.184C838.532 166.932 846.8 167.301 859.317 165.94C871.888 164.574 885.738 159.532 899.776 154.816C913.881 150.078 928.216 145.651 941.976 145.329C955.721 145.01 968.078 148.71 980.932 152.688C993.753 156.657 1007.05 160.897 1022.48 161.467C1037.89 162.033 1053.97 158.97 1070.69 155.748C1087.44 152.518 1104.87 149.12 1123.13 148.917C1141.4 148.714 1180.53 153.592 1215.19 158.539C1232.5 161.01 1248.66 163.493 1260.5 165.359C1266.41 166.292 1271.25 167.07 1274.6 167.615C1276.28 167.888 1277.59 168.103 1278.48 168.249C1278.67 168.281 1278.85 168.309 1279 168.334V294.983L1 275.101V80.4229C1.11185 80.4701 1.22913 80.522 1.35352 80.5742C2.48963 81.051 4.14424 81.7298 6.2207 82.5381C10.3729 84.1544 16.2187 86.2923 22.9951 88.3789C36.0995 92.4139 52.7823 96.2884 67.4512 95.7734L68.8643 95.71C83.8686 94.8843 103.855 87.9751 122.799 80.3213C132.29 76.4867 141.558 72.4484 149.848 68.8662C158.149 65.279 165.451 62.1566 171.049 60.1338C182.279 56.0756 186.026 55.2275 189.316 54.2402C192.253 53.3594 194.776 52.3803 201.524 49.0947L204.689 47.5391C209.429 45.1897 214.459 40.951 219.773 36.041C225.133 31.0886 230.775 25.4598 236.884 20.1182Z" stroke="url(#paint1_linear_2032_11)" stroke-width="2" stroke-linecap="round" stroke-linejoin="round"/>
<defs>
<filter id="filter0_i_2032_11" x="0" y="0" width="1280" height="307" filterUnits="userSpaceOnUse" color-interpolation-filters="sRGB">
<feFlood flood-opacity="0" result="BackgroundImageFix"/>
<feBlend mode="normal" in="SourceGraphic" in2="BackgroundImageFix" result="shape"/>
<feColorMatrix in="SourceAlpha" type="matrix" values="0 0 0 0 0 0 0 0 0 0 0 0 0 0 0 0 0 0 127 0" result="hardAlpha"/>
<feOffset dy="11"/>
<feGaussianBlur stdDeviation="7.5"/>
<feComposite in2="hardAlpha" operator="arithmetic" k2="-1" k3="1"/>
<feColorMatrix type="matrix" values="0 0 0 0 0.154034 0 0 0 0 0.144146 0 0 0 0 0.144146 0 0 0 0.25 0"/>
<feBlend mode="normal" in2="shape" result="effect1_innerShadow_2032_11"/>
</filter>
<linearGradient id="paint0_linear_2032_11" x1="216.592" y1="-50.5848" x2="284.342" y2="189.833" gradientUnits="userSpaceOnUse">
<stop stop-color="#7E7677"/>
<stop offset="1" stop-color="#5A5253"/>
</linearGradient>
<linearGradient id="paint1_linear_2032_11" x1="232.653" y1="-35.5596" x2="252.182" y2="185.975" gradientUnits="userSpaceOnUse">
<stop stop-color="white" stop-opacity="0.8"/>
<stop offset="1" stop-color="#999999" stop-opacity="0.08"/>
</linearGradient>
</defs>
</svg>

<svg xmlns="http://www.w3.org/2000/svg" width="1280" height="296" fill="none" viewBox="0 0 1280 296"><g filter="url(#a)"><path fill="url(#b)" d="M0 276.086V78.906S39.168 96.35 68.81 94.712c29.634-1.631 79.371-27.378 101.899-35.519s15.147-3.437 33.536-12.55C222.629 37.53 246.467-1.451 278.272.042c31.811 1.492 59.276 57.828 83.615 64.075 24.338 6.253 27.532-13.836 51.614-4.14 24.088 9.703 65.243 61.272 100.809 71.809 35.56 10.537 29.221 1.768 54.754 6.585 25.533 4.811 59.879 20.924 97.664 25.678 37.784 4.754 95.512-1.223 127.597-.897 32.086.333 40.016 4.497 64.884 1.794s54.882-19.964 82.743-20.616c27.861-.646 50.018 15.009 80.568 16.138 30.55 1.122 63.87-12.143 100.59-12.551 36.73-.407 156.89 19.569 156.89 19.569V296z"/></g><path stroke="url(#c)" stroke-linecap="round" stroke-linejoin="round" stroke-width="2" d="M236.884 20.118C249.097 9.438 262.745.314 278.226 1.041c7.666.36 15.153 4.03 22.507 9.563 7.351 5.53 14.474 12.848 21.413 20.37 6.915 7.496 13.666 15.216 20.192 21.43 6.307 6.004 12.546 10.746 18.704 12.519l.596.162c6.226 1.6 11.144 1.524 15.398.639 4.224-.88 7.765-2.554 11.158-4.054 3.419-1.511 6.712-2.858 10.609-3.263 3.879-.402 8.429.125 14.324 2.498 5.869 2.364 12.856 7.318 20.654 13.679 7.786 6.35 16.27 14.01 25.164 21.74 17.713 15.393 37.055 31.079 55.081 36.42 17.844 5.288 25.266 5.758 31.466 5.479 6.086-.275 10.758-1.252 23.386 1.131h.001c12.688 2.391 27.568 7.59 44.121 12.831 16.512 5.227 34.616 10.467 53.603 12.856 18.981 2.388 42.933 2.079 66.098 1.22 23.211-.861 45.603-2.271 61.614-2.109 15.998.166 25.956 1.285 35.077 2.032 9.14.748 17.408 1.117 29.925-.244 12.571-1.366 26.421-6.408 40.459-11.124 14.105-4.738 28.44-9.165 42.2-9.487 13.745-.319 26.102 3.381 38.956 7.359 12.821 3.969 26.118 8.209 41.548 8.779 15.41.566 31.49-2.497 48.21-5.719 16.75-3.23 34.18-6.628 52.44-6.831 18.27-.203 57.4 4.675 92.06 9.622a3215 3215 0 0 1 59.41 9.076c1.68.273 2.99.488 3.88.634l.52.085v126.649L1 275.101V80.423l.354.151c1.136.477 2.79 1.156 4.867 1.964a248 248 0 0 0 16.774 5.84c13.104 4.036 29.787 7.91 44.456 7.395l1.413-.063c15.005-.826 34.991-7.735 53.935-15.389 9.491-3.834 18.759-7.873 27.049-11.455 8.301-3.587 15.603-6.71 21.201-8.732 11.23-4.058 14.977-4.907 18.267-5.894 2.937-.88 5.46-1.86 12.208-5.145l3.165-1.556c4.74-2.35 9.77-6.588 15.084-11.498 5.36-4.952 11.002-10.581 17.111-15.923"/><defs><linearGradient id="b" x1="216.592" x2="284.342" y1="-50.585" y2="189.833" gradientUnits="userSpaceOnUse"><stop stop-color="#7e7677"/><stop offset="1" stop-color="#5a5253"/></linearGradient><linearGradient id="c" x1="232.653" x2="252.182" y1="-35.56" y2="185.975" gradientUnits="userSpaceOnUse"><stop stop-color="#fff" stop-opacity=".8"/><stop offset="1" stop-color="#999" stop-opacity=".08"/></linearGradient><filter id="a" width="1280" height="307" x="0" y="0" color-interpolation-filters="sRGB" filterUnits="userSpaceOnUse"><feFlood flood-opacity="0" result="BackgroundImageFix"/><feBlend in="SourceGraphic" in2="BackgroundImageFix" result="shape"/><feColorMatrix in="SourceAlpha" result="hardAlpha" values="0 0 0 0 0 0 0 0 0 0 0 0 0 0 0 0 0 0 127 0"/><feOffset dy="11"/><feGaussianBlur stdDeviation="7.5"/><feComposite in2="hardAlpha" k2="-1" k3="1" operator="arithmetic"/><feColorMatrix values="0 0 0 0 0.154034 0 0 0 0 0.144146 0 0 0 0 0.144146 0 0 0 0.25 0"/><feBlend in2="shape" result="effect1_innerShadow_2032_11"/></filter></defs></svg>
